svgs/thin/chess-board.svg

<svg xmlns="http://www.w3.org/2000/svg" viewBox="0 0 448 512"><!--! Font Awesome Pro 6.4.2 by @fontawesome - https://fontawesome.com License - https://fontawesome.com/license (Commercial License) Copyright 2023 Fonticons, Inc. --><path d="M64 48C37.5 48 16 69.5 16 96V416c0 26.5 21.5 48 48 48H384c26.5 0 48-21.5 48-48V96c0-26.5-21.5-48-48-48H64zM0 96C0 60.7 28.7 32 64 32H384c35.3 0 64 28.7 64 64V416c0 35.3-28.7 64-64 64H64c-35.3 0-64-28.7-64-64V96zm80-8h48 64 64 64 48c13.3 0 24 10.7 24 24v48 64 64 64 48c0 13.3-10.7 24-24 24H320 256 192 128 80c-13.3 0-24-10.7-24-24V352 288 224 160 112c0-13.3 10.7-24 24-24zm-8 24v40h48V104H80c-4.4 0-8 3.6-8 8zm64 40h48V104H136v48zm64 0h48V104H200v48zm64 0h48V104H264v48zm64 0h48V112c0-4.4-3.6-8-8-8H328v48zm0 16v48h48V168H328zm0 64v48h48V232H328zm0 64v48h48V296H328zm0 64v48h40c4.4 0 8-3.6 8-8V360H328zm-16 0H264v48h48V360zm-64 0H200v48h48V360zm-64 0H136v48h48V360zm-64 0H72v40c0 4.4 3.6 8 8 8h40V360zm0-16V296H72v48h48zm0-64V232H72v48h48zm0-64V168H72v48h48zm16 0h48V168H136v48zm64 0h48V168H200v48zm64 0h48V168H264v48zm0 16v48h48V232H264zm0 64v48h48V296H264zm-16 0H200v48h48V296zm-64 0H136v48h48V296zm0-16V232H136v48h48zm16 0h48V232H200v48z"/></svg>

<svg xmlns="http://www.w3.org/2000/svg" viewBox="0 0 448 512"><!--! Font Awesome Pro 6.6.0 by @fontawesome - https://fontawesome.com License - https://fontawesome.com/license (Commercial License) Copyright 2024 Fonticons, Inc. --><path d="M64 48C37.5 48 16 69.5 16 96l0 320c0 26.5 21.5 48 48 48l320 0c26.5 0 48-21.5 48-48l0-320c0-26.5-21.5-48-48-48L64 48zM0 96C0 60.7 28.7 32 64 32l320 0c35.3 0 64 28.7 64 64l0 320c0 35.3-28.7 64-64 64L64 480c-35.3 0-64-28.7-64-64L0 96zm80-8l48 0 64 0 64 0 64 0 48 0c13.3 0 24 10.7 24 24l0 48 0 64 0 64 0 64 0 48c0 13.3-10.7 24-24 24l-48 0-64 0-64 0-64 0-48 0c-13.3 0-24-10.7-24-24l0-48 0-64 0-64 0-64 0-48c0-13.3 10.7-24 24-24zm-8 24l0 40 48 0 0-48-40 0c-4.4 0-8 3.6-8 8zm64 40l48 0 0-48-48 0 0 48zm64 0l48 0 0-48-48 0 0 48zm64 0l48 0 0-48-48 0 0 48zm64 0l48 0 0-40c0-4.4-3.6-8-8-8l-40 0 0 48zm0 16l0 48 48 0 0-48-48 0zm0 64l0 48 48 0 0-48-48 0zm0 64l0 48 48 0 0-48-48 0zm0 64l0 48 40 0c4.4 0 8-3.6 8-8l0-40-48 0zm-16 0l-48 0 0 48 48 0 0-48zm-64 0l-48 0 0 48 48 0 0-48zm-64 0l-48 0 0 48 48 0 0-48zm-64 0l-48 0 0 40c0 4.4 3.6 8 8 8l40 0 0-48zm0-16l0-48-48 0 0 48 48 0zm0-64l0-48-48 0 0 48 48 0zm0-64l0-48-48 0 0 48 48 0zm16 0l48 0 0-48-48 0 0 48zm64 0l48 0 0-48-48 0 0 48zm64 0l48 0 0-48-48 0 0 48zm0 16l0 48 48 0 0-48-48 0zm0 64l0 48 48 0 0-48-48 0zm-16 0l-48 0 0 48 48 0 0-48zm-64 0l-48 0 0 48 48 0 0-48zm0-16l0-48-48 0 0 48 48 0zm16 0l48 0 0-48-48 0 0 48z"/></svg>
